X:1
T:A minor           Ananias Davisson, 1820
T:Philip Doddridge, 1755 Christ the Door                 86. 86. (C. M.)
T:Staunton
T:Transcribed from Supplement to the Kentucky Harmony , 1820 ; Counter by B. C. Johnston, 2017.
%%score [ 1 2 3 4 ]
L:1/8
Q:1/4=150
M:6/4
K:C
V:1 treble nm="Tr." snm="Tr."
V:2 treble nm="C." snm="C."
V:3 treble-8 nm="T." snm="T."
V:4 bass nm="B." snm="B."
V:1
"^1. Awake, our souls, and bless his name,    Whose  mercies  ne – ver  fail; _____  Who  opens  wide  a   door    of  hope        In  A – chor's  gloo–my  vale.        Be  –  hold  the" c2 | %1
 e4 e2 e4 e2 | (d2 B2) G2 G4 G2 | c4 A2 (A2 G2) A2 | (c4 d2 e4) c2 | e4 e2 e4 e2 | %6
 (d2 B2) G2 G4 G2 | c4 A2 (E2 F2) G2 | A12 |: d6 c4 A2 | %10
"^1. por – tal   wide  dis–played, The buil–dings strong  and  fair; ______     With – in  are  pas–tures  flesh  and  green,     And  li – ving  streams  are  there." G4 G2 (c2 d2) e2 | %11
 d4 c2 d4 e2 | (e2 d2) e2 (g6 | e6) c6 | e4 e2 e4 e2 | (d2 B2) G2 G4 G2 | c4 A2 (E2 F2) G2 | A12 :| %18
V:2
 E2 | G4 G2 A4 A2 | (B2 A2) B2 (G2 A2) B2 | A4 E2 (A2 G2) A2 | (c4 B2 A4) E2 | G4 G2 A4 A2 | %6
 (B2 A2) B2 (G2 A2) B2 | c4 A2 (B2 A2) G2 | A12 |: d6 c4 c2 | G4 G2 (c2 B2) A2 | G4 G2 A4 A2 | %12
 (A2 G2) E2 (G6 | A6) c6 | A4 A2 c4 A2 | (A2 B2) A2 G4 B2 | c4 A2 (B2 A2) G2 | A12 :| %18
V:3
"^2. Enter, my soul, with cheerful haste,        For  Je  – sus  is        the   door; _____  Nor fear the serpent's  wi  –  ly  arts,       Nor  fear  the  li   –    on's   roar.        O      may   thy" E2 | %1
 G4 G2 A4 A2 | (B2 A2) B2 d4 d2 | e4 e2 (e2 d2) B2 | (A4 G2 E4) E2 | G4 G2 A4 A2 | %6
 (B2 A2) B2 d4 d2 | e4 e2 (e2 d2) B2 | A12 |: d6 e4 e2 | %10
"^2.grace  the  na – tions   lead,   And  Jews and  Gen–tiles  come, _____       All  traveling  though  one  beauteous  gate     To    one    e – ter   –  nal   home." g4 g2 (e2 d2) e2 | %11
 g4 g2 a4 a2 | (a2 g2) e2 (d4 c2 | A6) G6 | A4 A2 c4 c2 | (A2 G2) A2 c4 d2 | e4 e2 (e2 d2) B2 | %17
 A12 :| %18
V:4
 E,2 | E,4 E,2 A,4 A,2 | G,4 G,2 (G,2 A,2) B,2 | A,4 A,2 (C,2 D,2) E,2 | (F,4 E,2 A,,4) E,2 | %5
 E,4 E,2 A,4 A,2 | G,4 G,2 (G,2 A,2) B,2 | G,4 G,2 (C,2 D,2) E,2 | A,,12 |: G,6 C4 C2 | %10
"^_________________________________________________\nEdited by B. C. Johnston, 2017\n   1. Measure 14, \nTreble\n: second note on B in the original, but notated \nfa\n, changed to C.\n   2. Counter part written." C4 C2 (C2 B,2) A,2 | %11
 G,4 G,2 (A,2 B,2) C2 | (A,2 G,2) E,2 (D,4 E,2 | A,6) C,6 | E,4 E,2 A,4 A,2 | %15
 G,4 G,2 (G,2 A,2) B,2 | A,4 A,2 (C,2 D,2) E,2 | A,,12 :| %18

